images/data.svg

<svg height="18" viewBox="0 0 34 18" width="34" xmlns="http://www.w3.org/2000/svg" xmlns:xlink="http://www.w3.org/1999/xlink"><mask id="a" fill="#fff"><path d="m0 0h36v36h-36z" fill="#fff" fill-rule="evenodd"/></mask><path d="m34.5 12c0 1.65-1.35 3-3 3-.27 0-.525-.03-.765-.105l-5.34 5.325c.075.24.105.51.105.78 0 1.65-1.35 3-3 3s-3-1.35-3-3c0-.27.03-.54.105-.78l-3.825-3.825c-.24.075-.51.105-.78.105s-.54-.03-.78-.105l-6.825 6.84c.075.24.105.495.105.765 0 1.65-1.35 3-3 3s-3-1.35-3-3 1.35-3 3-3c.27 0 .525.03.765.105l6.84-6.825c-.075-.24-.105-.51-.105-.78 0-1.65 1.35-3 3-3s3 1.35 3 3c0 .27-.03.54-.105.78l3.825 3.825c.24-.075.51-.105.78-.105s.54.03.78.105l5.325-5.34c-.075-.24-.105-.495-.105-.765 0-1.65 1.35-3 3-3s3 1.35 3 3z" fill="#2f89fc" mask="url(#a)" transform="translate(-1 -9)"/></svg>

<?xml version="1.0" encoding="UTF-8"?>
<svg width="34px" height="18px" viewBox="0 0 34 18" version="1.1" xmlns="http://www.w3.org/2000/svg" xmlns:xlink="http://www.w3.org/1999/xlink">
    <!-- Generator: Sketch 53.2 (72643) - https://sketchapp.com -->
    <title>baseline-timeline-24px</title>
    <desc>Created with Sketch.</desc>
    <defs>
        <polygon id="path-1" points="0 0 36 0 36 36 0 36"></polygon>
    </defs>
    <g id="Page-1" stroke="none" stroke-width="1" fill="none" fill-rule="evenodd">
        <g id="baseline-timeline-24px" transform="translate(-1.000000, -9.000000)">
            <mask id="mask-2" fill="white">
                <use xlink:href="#path-1"></use>
            </mask>
            <g id="a"></g>
            <path d="M34.5,12 C34.5,13.65 33.15,15 31.5,15 C31.23,15 30.975,14.97 30.735,14.895 L25.395,20.22 C25.47,20.46 25.5,20.73 25.5,21 C25.5,22.65 24.15,24 22.5,24 C20.85,24 19.5,22.65 19.5,21 C19.5,20.73 19.53,20.46 19.605,20.22 L15.78,16.395 C15.54,16.47 15.27,16.5 15,16.5 C14.73,16.5 14.46,16.47 14.22,16.395 L7.395,23.235 C7.47,23.475 7.5,23.73 7.5,24 C7.5,25.65 6.15,27 4.5,27 C2.85,27 1.5,25.65 1.5,24 C1.5,22.35 2.85,21 4.5,21 C4.77,21 5.025,21.03 5.265,21.105 L12.105,14.28 C12.03,14.04 12,13.77 12,13.5 C12,11.85 13.35,10.5 15,10.5 C16.65,10.5 18,11.85 18,13.5 C18,13.77 17.97,14.04 17.895,14.28 L21.72,18.105 C21.96,18.03 22.23,18 22.5,18 C22.77,18 23.04,18.03 23.28,18.105 L28.605,12.765 C28.53,12.525 28.5,12.27 28.5,12 C28.5,10.35 29.85,9 31.5,9 C33.15,9 34.5,10.35 34.5,12 Z" id="Path" fill="#2F89FC" fill-rule="nonzero" mask="url(#mask-2)"></path>
        </g>
    </g>
</svg>
